public/img/bell.svg

<svg width="43" height="43" viewBox="0 0 43 43" fill="none" xmlns="http://www.w3.org/2000/svg">
<g filter="url(#filter0_f_794_424)">
<path d="M41.9998 21.4999C41.9998 32.8216 32.8216 41.9998 21.4999 41.9998C10.1781 41.9998 1 32.8216 1 21.4999C1 10.1781 10.1781 1 21.4999 1C32.8216 1 41.9998 10.1781 41.9998 21.4999Z" fill="#E4EFFC"/>
</g>
<path d="M28.6129 24.5194V24.3123V19.325C28.6129 16.0587 26.394 13.3036 23.385 12.4751L23.1449 12.409L23.053 12.1776C22.8074 11.559 22.2086 11.125 21.5004 11.125C20.7922 11.125 20.1934 11.559 19.9478 12.1776L19.8559 12.4089L19.616 12.4751C16.6067 13.3047 14.3879 16.0588 14.3879 19.325V24.3123V24.5194L14.2414 24.6658L12.3851 26.5222L12.385 26.5222C12.2749 26.6324 12.213 26.7817 12.2129 26.9375C12.2129 26.9375 12.2129 26.9376 12.2129 26.9376V28.025C12.2129 28.1808 12.2748 28.3302 12.385 28.4404M28.6129 24.5194L12.385 28.4404M28.6129 24.5194L28.7593 24.6658L30.6157 26.5222L30.6158 26.5222C30.7259 26.6324 30.7878 26.7817 30.7879 26.9375C30.7879 26.9375 30.7879 26.9376 30.7879 26.9376M28.6129 24.5194L30.7879 26.9376M12.385 28.4404C12.4951 28.5506 12.6446 28.6125 12.8004 28.6125H30.2004C30.3562 28.6125 30.5056 28.5506 30.6158 28.4404C30.726 28.3302 30.7879 28.1808 30.7879 28.025V26.9376M12.385 28.4404L30.7879 26.9376M21.501 31.875L21.4998 31.875C20.9302 31.8757 20.3745 31.699 19.91 31.3693C19.6505 31.1851 19.4266 30.9582 19.2468 30.7H23.7539C23.5742 30.9582 23.3503 31.1851 23.0907 31.3693C22.6263 31.699 22.0706 31.8757 21.501 31.875Z" stroke="#101B49"/>
<defs>
<filter id="filter0_f_794_424" x="0.51336" y="0.51336" width="41.9733" height="41.973" filterUnits="userSpaceOnUse" color-interpolation-filters="sRGB">
<feFlood flood-opacity="0" result="BackgroundImageFix"/>
<feBlend mode="normal" in="SourceGraphic" in2="BackgroundImageFix" result="shape"/>
<feGaussianBlur stdDeviation="0.24332" result="effect1_foregroundBlur_794_424"/>
</filter>
</defs>
</svg>

<svg xmlns="http://www.w3.org/2000/svg" width="43" height="43" fill="none"><g filter="url(#a)"><path fill="#E4EFFC" d="M42 21.5C42 32.822 32.822 42 21.5 42S1 32.822 1 21.5 10.178 1 21.5 1 42 10.178 42 21.5"/></g><path stroke="#101B49" d="M28.613 24.52v-5.195c0-3.266-2.219-6.021-5.228-6.85l-.24-.066-.092-.231a1.66 1.66 0 0 0-1.553-1.053c-.708 0-1.307.434-1.552 1.053l-.092.23-.24.067c-3.01.83-5.228 3.584-5.228 6.85v5.194l-.147.147-1.856 1.856a.6.6 0 0 0-.172.416v1.087c0 .156.062.305.172.415m16.228-3.92-16.228 3.92m16.228-3.92.146.146 1.857 1.856c.11.11.172.26.172.416m-2.175-2.419 2.175 2.419M12.385 28.44c.11.11.26.172.415.172h17.4a.587.587 0 0 0 .588-.587v-1.087M12.385 28.44l18.403-1.502M21.5 31.875H21.5a2.74 2.74 0 0 1-2.253-1.175h4.507a2.74 2.74 0 0 1-2.253 1.175Z"/><defs><filter id="a" width="41.973" height="41.973" x=".513" y=".513" color-interpolation-filters="sRGB" filterUnits="userSpaceOnUse"><feFlood flood-opacity="0" result="BackgroundImageFix"/><feBlend in="SourceGraphic" in2="BackgroundImageFix" result="shape"/><feGaussianBlur result="effect1_foregroundBlur_794_424" stdDeviation=".243"/></filter></defs></svg>
